X: 3179
Q: "Strathspey."
M: C
L: 1/16
K: Bb
uB2 |\
vF3uB dcBA B4 (F3B) | G3c edc=B cG3 G3A |\
|: d2 |\
f3B gfed fB3 B3d | ec3 g3c a3c g3b |\
fB3 d3b bagf edcB | ge3 cA3 B6 :|


